assets/1f4ae/color.min.svg

<svg xmlns="http://www.w3.org/2000/svg" width="32" height="32" fill="none" viewBox="0 0 32 32"><path fill="#D5C1DA" stroke="url(#a)" stroke-miterlimit="10" stroke-width=".988" d="m12.34 26.35-.63-1.28a4.031 4.031 0 0 0-3.02-2.2l-1.41-.21c-3.29-.48-4.61-4.53-2.23-6.85l1.02-1c.95-.92 1.38-2.25 1.15-3.55l-.24-1.41c-.56-3.28 2.88-5.78 5.83-4.23l1.27.67c1.17.61 2.57.61 3.74 0l1.27-.67c2.95-1.55 6.39.95 5.83 4.23l-.24 1.41c-.22 1.3.21 2.63 1.15 3.55l1.02 1c2.38 2.32 1.07 6.37-2.23 6.85l-1.41.21a3.99 3.99 0 0 0-3.02 2.2l-.63 1.28c-1.49 2.98-5.74 2.98-7.22 0Z"/><g filter="url(#b)"><path fill="url(#c)" d="M20.87 28.6a5.58 5.58 0 0 1-4.5-2.29c-.15-.2-.27-.41-.39-.64-.11.23-.24.44-.39.64a5.58 5.58 0 0 1-4.5 2.29c-.75 0-1.48-.15-2.17-.44-.39-.16-.62-.57-.58-1l.05-.46-.42.19a.964.964 0 0 1-1.13-.24 5.567 5.567 0 0 1-.3-6.92c.15-.2.31-.39.49-.57-.25-.04-.5-.09-.73-.17a5.546 5.546 0 0 1-3.82-5.77c.03-.42.35-.77.77-.86l.45-.1-.3-.33a.952.952 0 0 1-.12-1.14c1.01-1.66 2.84-2.7 4.77-2.7.58 0 1.16.09 1.72.27.23.08.46.18.68.29-.04-.25-.06-.5-.06-.75 0-2.59 1.77-4.82 4.31-5.42.07-.02.14-.02.21-.02.34 0 .67.19.84.49l.23.4.23-.4c.18-.3.5-.49.84-.49.07 0 .14.01.21.02 2.54.6 4.31 2.82 4.31 5.42 0 .25-.02.5-.06.75.22-.12.45-.21.69-.29.56-.18 1.14-.27 1.72-.27a5.61 5.61 0 0 1 4.77 2.7c.22.36.17.83-.12 1.15l-.31.34.45.1c.42.09.74.44.77.86.22 2.6-1.35 4.97-3.82 5.77-.24.08-.48.13-.73.17.18.18.35.37.49.57 1.52 2.1 1.4 4.94-.3 6.92-.18.21-.44.33-.73.33-.14 0-.28-.03-.4-.09l-.42-.19.05.46c.04.43-.19.84-.58 1-.69.27-1.42.42-2.17.42Z"/></g><g filter="url(#d)"><path fill="#FF6CC7" d="M17.05 2.93c.04 0 .07 0 .11.01 2.26.53 3.95 2.54 3.95 4.96 0 .7-.19 1.36-.51 2 .51-.5 1.08-.88 1.74-1.1.52-.17 1.05-.25 1.57-.25 1.77 0 3.44.94 4.37 2.47.11.19.08.43-.07.59 0 0-.58.65-.7.78-.06.06-.02.19.07.21l1.02.22c.21.05.38.22.4.44.19 2.31-1.2 4.54-3.5 5.29-.42.14-.84.19-1.27.19-.26 0-.53-.02-.8-.06.63.33 1.19.75 1.6 1.32 1.42 1.96 1.24 4.58-.28 6.34a.48.48 0 0 1-.37.17c-.07 0-.15-.01-.21-.05 0 0-.79-.35-.96-.43-.01-.01-.03-.01-.04-.01-.07 0-.14.07-.13.14l.11 1.04c.02.22-.09.44-.3.52-.64.27-1.32.4-1.99.4-1.57 0-3.12-.72-4.12-2.1-.41-.57-.65-1.22-.76-1.91-.12.7-.35 1.35-.76 1.91-1 1.37-2.55 2.1-4.12 2.1-.67 0-1.35-.13-1.99-.4a.51.51 0 0 1-.3-.52l.11-1.04c.01-.07-.06-.13-.13-.13-.02 0-.03 0-.05.01l-.95.42a.48.48 0 0 1-.58-.12c-1.52-1.76-1.7-4.38-.28-6.34.41-.57.97-.99 1.6-1.32-.27.04-.54.06-.8.06-.43 0-.86-.06-1.27-.19-2.3-.75-3.69-2.98-3.5-5.29a.5.5 0 0 1 .4-.44s.85-.18 1.03-.22c.08-.02.12-.14.06-.21-.13-.14-.7-.77-.7-.77a.484.484 0 0 1-.07-.59c.93-1.54 2.6-2.47 4.37-2.47.52 0 1.05.08 1.57.25.66.22 1.24.6 1.74 1.1-.31-.64-.51-1.3-.51-2 0-2.42 1.69-4.43 3.95-4.96.04-.01.07-.01.11-.01.18 0 .35.1.44.26 0 0 .44.75.53.91.02.04.06.05.1.05.04 0 .09-.02.11-.06.1-.17.52-.9.52-.9.1-.17.27-.27.44-.27Zm0-.93c-.41 0-.8.18-1.07.48-.27-.3-.66-.48-1.07-.48-.11 0-.21.01-.32.04a6.01 6.01 0 0 0-4.67 5.87v.02c-.01 0-.01 0-.02-.01-.6-.2-1.23-.3-1.86-.3-2.09 0-4.07 1.12-5.17 2.92-.27.45-.27 1.01 0 1.46-.47.21-.81.66-.85 1.19a6.024 6.024 0 0 0 4.14 6.25c.01 0 .01 0 .02.01l-.01.01a6.019 6.019 0 0 0 .32 7.49c.27.31.66.49 1.08.49.1 0 .21-.01.31-.03.05.51.38.98.86 1.18a6.053 6.053 0 0 0 7.23-2.01l.01-.01.01.01a6.053 6.053 0 0 0 7.23 2.01c.48-.2.81-.66.86-1.18.1.02.2.03.31.03.42 0 .81-.18 1.08-.49 1.84-2.14 1.98-5.22.32-7.49l-.01-.01c.01 0 .01 0 .02-.01a6.012 6.012 0 0 0 4.14-6.25c-.04-.52-.38-.98-.85-1.18.26-.45.27-1.01 0-1.46a6.08 6.08 0 0 0-5.17-2.92c-.63 0-1.26.1-1.86.3-.01 0-.01 0-.02.01v-.02a6.01 6.01 0 0 0-4.67-5.87.86.86 0 0 0-.32-.05Z"/></g><path stroke="#FF6CC7" stroke-linecap="round" stroke-linejoin="round" stroke-miterlimit="10" stroke-width=".35" d="m16.43 14.23-1.29 1.15 1.38 1.1m-.55-5.67v2.08s.05.57-.58.57-.62-.74-.21-.89c.41-.15 1.25-.02 1.77.65m.06-1.64H16m3.93.21s.07.96 1.28 1.55m-2.61.06s1.15-.45 1.32-1.62m1.11-.18h-2.26m1.15-.71v1.04m-8-1.11v1.91s.06.65-.58.65c-.64 0-.69-.75-.03-.92.66-.17 1.36.47 1.6.76m-.08-1.99H10.9m1.93.61H10.9m.32 2.32v1.66s-.01.68.61.68.95-.52 1.13-1.09m-1.54 1.76s-.03 1.1-.65 2.59m1.24-1.97h-1.32m1.24.56h.99m-1.05.66s-.18.35.18.51c.35.16 1.09-.03 1.09-.03m-.37 1.88a.49.49 0 1 0 0-.98.49.49 0 0 0 0 .98Zm1.91-3.67h2.06s-1.16.14-1.16 1.06 1.01.8 1.01.8m.03-1.14.25.31m.21-.6.26.33m-1.39 2.06.72 1.53h-1.04s-.61-.02-.61.53c0 .54.76.69 1.85.18"/><path stroke="#FF6CC7" stroke-linecap="round" stroke-linejoin="round" stroke-miterlimit="10" stroke-width=".35" d="M15.19 20.93s1.11.06 1.79-.19m-1.83.79s1.32.01 1.9-.17m1.72-7.06h2.37m-1.89.94s.4-.16.52-.92m.25.89h.37v-.78m-.49-.17v-.29m1.01.86s.2.2.36.41m-2.32-.45s-.14.23-.33.41m.88.55h1.12s-.55.91-1.97.91m1.07-1.25s-.43.5-.88.68"/><path stroke="#FF6CC7" stroke-linecap="round" stroke-linejoin="round" stroke-miterlimit="10" stroke-width=".35" d="M19.43 15.86s.3.8 1.63.86"/><defs><radialGradient id="a" cx="0" cy="0" r="1" gradientTransform="matrix(-25.12498 12.24993 -7.69209 -15.7767 29.375 12.625)" gradientUnits="userSpaceOnUse"><stop stop-color="#FF91DE"/><stop offset="1" stop-color="#D756B1"/></radialGradient><radialGradient id="c" cx="0" cy="0" r="1" gradientTransform="matrix(16.875 -17.75 18.36177 17.4566 11.25 25)" gradientUnits="userSpaceOnUse"><stop stop-color="#F7EBFF"/><stop offset="1" stop-color="#E3D6ED"/></radialGradient><filter id="b" width="28.541" height="27.64" x=".96" y="2.46" color-interpolation-filters="sRGB" filterUnits="userSpaceOnUse"><feFlood flood-opacity="0" result="BackgroundImageFix"/><feBlend in="SourceGraphic" in2="BackgroundImageFix" result="shape"/><feColorMatrix in="SourceAlpha" result="hardAlpha" values="0 0 0 0 0 0 0 0 0 0 0 0 0 0 0 0 0 0 127 0"/><feOffset dx="-1.5" dy="1.5"/><feGaussianBlur stdDeviation="1.5"/><feComposite in2="hardAlpha" k2="-1" k3="1" operator="arithmetic"/><feColorMatrix values="0 0 0 0 0.819608 0 0 0 0 0.733333 0 0 0 0 0.882353 0 0 0 1 0"/><feBlend in2="shape" result="effect1_innerShadow_28327_7196"/></filter><filter id="d" width="28.363" height="27.56" x="1.8" y="1.75" color-interpolation-filters="sRGB" filterUnits="userSpaceOnUse"><feFlood flood-opacity="0" result="BackgroundImageFix"/><feBlend in="SourceGraphic" in2="BackgroundImageFix" result="shape"/><feColorMatrix in="SourceAlpha" result="hardAlpha" values="0 0 0 0 0 0 0 0 0 0 0 0 0 0 0 0 0 0 127 0"/><feOffset dx=".2" dy="-.4"/><feGaussianBlur stdDeviation=".125"/><feComposite in2="hardAlpha" k2="-1" k3="1" operator="arithmetic"/><feColorMatrix values="0 0 0 0 0.870588 0 0 0 0 0.313726 0 0 0 0 0.741176 0 0 0 0.75 0"/><feBlend in2="shape" result="effect1_innerShadow_28327_7196"/><feColorMatrix in="SourceAlpha" result="hardAlpha" values="0 0 0 0 0 0 0 0 0 0 0 0 0 0 0 0 0 0 127 0"/><feOffset dx="-.2" dy=".4"/><feGaussianBlur stdDeviation=".125"/><feComposite in2="hardAlpha" k2="-1" k3="1" operator="arithmetic"/><feColorMatrix values="0 0 0 0 0.996078 0 0 0 0 0.541176 0 0 0 0 0.831373 0 0 0 1 0"/><feBlend in2="effect1_innerShadow_28327_7196" result="effect2_innerShadow_28327_7196"/></filter></defs></svg>

<svg xmlns="http://www.w3.org/2000/svg" width="32" height="32" fill="none"><path fill="#D5C1DA" stroke="url(#a)" stroke-miterlimit="10" stroke-width=".988" d="m12.34 26.35-.63-1.28a4.031 4.031 0 0 0-3.02-2.2l-1.41-.21c-3.29-.48-4.61-4.53-2.23-6.85l1.02-1c.95-.92 1.38-2.25 1.15-3.55l-.24-1.41c-.56-3.28 2.88-5.78 5.83-4.23l1.27.67c1.17.61 2.57.61 3.74 0l1.27-.67c2.95-1.55 6.39.95 5.83 4.23l-.24 1.41c-.22 1.3.21 2.63 1.15 3.55l1.02 1c2.38 2.32 1.07 6.37-2.23 6.85l-1.41.21a3.99 3.99 0 0 0-3.02 2.2l-.63 1.28c-1.49 2.98-5.74 2.98-7.22 0Z"/><g filter="url(#b)"><path fill="url(#c)" d="M20.87 28.6a5.58 5.58 0 0 1-4.5-2.29c-.15-.2-.27-.41-.39-.64-.11.23-.24.44-.39.64a5.58 5.58 0 0 1-4.5 2.29c-.75 0-1.48-.15-2.17-.44-.39-.16-.62-.57-.58-1l.05-.46-.42.19a.964.964 0 0 1-1.13-.24 5.567 5.567 0 0 1-.3-6.92c.15-.2.31-.39.49-.57-.25-.04-.5-.09-.73-.17a5.546 5.546 0 0 1-3.82-5.77c.03-.42.35-.77.77-.86l.45-.1-.3-.33a.952.952 0 0 1-.12-1.14c1.01-1.66 2.84-2.7 4.77-2.7.58 0 1.16.09 1.72.27.23.08.46.18.68.29-.04-.25-.06-.5-.06-.75 0-2.59 1.77-4.82 4.31-5.42.07-.02.14-.02.21-.02.34 0 .67.19.84.49l.23.4.23-.4c.18-.3.5-.49.84-.49.07 0 .14.01.21.02 2.54.6 4.31 2.82 4.31 5.42 0 .25-.02.5-.06.75.22-.12.45-.21.69-.29.56-.18 1.14-.27 1.72-.27a5.61 5.61 0 0 1 4.77 2.7c.22.36.17.83-.12 1.15l-.31.34.45.1c.42.09.74.44.77.86.22 2.6-1.35 4.97-3.82 5.77-.24.08-.48.13-.73.17.18.18.35.37.49.57 1.52 2.1 1.4 4.94-.3 6.92-.18.21-.44.33-.73.33-.14 0-.28-.03-.4-.09l-.42-.19.05.46c.04.43-.19.84-.58 1-.69.27-1.42.42-2.17.42Z"/></g><g filter="url(#d)"><path fill="#FF6CC7" d="M17.05 2.93c.04 0 .07 0 .11.01 2.26.53 3.95 2.54 3.95 4.96 0 .7-.19 1.36-.51 2 .51-.5 1.08-.88 1.74-1.1.52-.17 1.05-.25 1.57-.25 1.77 0 3.44.94 4.37 2.47.11.19.08.43-.07.59 0 0-.58.65-.7.78-.06.06-.02.19.07.21l1.02.22c.21.05.38.22.4.44.19 2.31-1.2 4.54-3.5 5.29-.42.14-.84.19-1.27.19-.26 0-.53-.02-.8-.06.63.33 1.19.75 1.6 1.32 1.42 1.96 1.24 4.58-.28 6.34a.48.48 0 0 1-.37.17c-.07 0-.15-.01-.21-.05 0 0-.79-.35-.96-.43-.01-.01-.03-.01-.04-.01-.07 0-.14.07-.13.14l.11 1.04c.02.22-.09.44-.3.52-.64.27-1.32.4-1.99.4-1.57 0-3.12-.72-4.12-2.1-.41-.57-.65-1.22-.76-1.91-.12.7-.35 1.35-.76 1.91-1 1.37-2.55 2.1-4.12 2.1-.67 0-1.35-.13-1.99-.4a.51.51 0 0 1-.3-.52l.11-1.04c.01-.07-.06-.13-.13-.13-.02 0-.03 0-.05.01l-.95.42a.48.48 0 0 1-.58-.12c-1.52-1.76-1.7-4.38-.28-6.34.41-.57.97-.99 1.6-1.32-.27.04-.54.06-.8.06-.43 0-.86-.06-1.27-.19-2.3-.75-3.69-2.98-3.5-5.29a.5.5 0 0 1 .4-.44s.85-.18 1.03-.22c.08-.02.12-.14.06-.21-.13-.14-.7-.77-.7-.77a.484.484 0 0 1-.07-.59c.93-1.54 2.6-2.47 4.37-2.47.52 0 1.05.08 1.57.25.66.22 1.24.6 1.74 1.1-.31-.64-.51-1.3-.51-2 0-2.42 1.69-4.43 3.95-4.96.04-.01.07-.01.11-.01.18 0 .35.1.44.26 0 0 .44.75.53.91.02.04.06.05.1.05.04 0 .09-.02.11-.06.1-.17.52-.9.52-.9.1-.17.27-.27.44-.27Zm0-.93c-.41 0-.8.18-1.07.48-.27-.3-.66-.48-1.07-.48-.11 0-.21.01-.32.04a6.01 6.01 0 0 0-4.67 5.87v.02c-.01 0-.01 0-.02-.01-.6-.2-1.23-.3-1.86-.3-2.09 0-4.07 1.12-5.17 2.92-.27.45-.27 1.01 0 1.46-.47.21-.81.66-.85 1.19a6.024 6.024 0 0 0 4.14 6.25c.01 0 .01 0 .02.01l-.01.01a6.019 6.019 0 0 0 .32 7.49c.27.31.66.49 1.08.49.1 0 .21-.01.31-.03.05.51.38.98.86 1.18a6.053 6.053 0 0 0 7.23-2.01l.01-.01.01.01a6.053 6.053 0 0 0 7.23 2.01c.48-.2.81-.66.86-1.18.1.02.2.03.31.03.42 0 .81-.18 1.08-.49 1.84-2.14 1.98-5.22.32-7.49l-.01-.01c.01 0 .01 0 .02-.01a6.012 6.012 0 0 0 4.14-6.25c-.04-.52-.38-.98-.85-1.18.26-.45.27-1.01 0-1.46a6.08 6.08 0 0 0-5.17-2.92c-.63 0-1.26.1-1.86.3-.01 0-.01 0-.02.01v-.02a6.01 6.01 0 0 0-4.67-5.87.86.86 0 0 0-.32-.05Z"/></g><path stroke="#FF6CC7" stroke-linecap="round" stroke-linejoin="round" stroke-miterlimit="10" stroke-width=".35" d="m16.43 14.23-1.29 1.15 1.38 1.1M15.97 10.81v2.08s.05.57-.58.57-.62-.74-.21-.89c.41-.15 1.25-.02 1.77.65M17.01 11.58H16M19.93 11.79s.07.96 1.28 1.55M18.6 13.4s1.15-.45 1.32-1.62M21.03 11.6h-2.26M19.92 10.89v1.04M11.92 10.82v1.91s.06.65-.58.65c-.64 0-.69-.75-.03-.92.66-.17 1.36.47 1.6.76M12.83 11.23H10.9M12.83 11.84H10.9M11.22 14.16v1.66s-.01.68.61.68.95-.52 1.13-1.09M11.42 17.17s-.03 1.1-.65 2.59M12.01 17.79h-1.32M11.93 18.35h.99M11.87 19.01s-.18.35.18.51c.35.16 1.09-.03 1.09-.03M12.77 21.37a.49.49 0 1 0 0-.98.49.49 0 0 0 0 .98ZM14.68 17.7h2.06s-1.16.14-1.16 1.06 1.01.8 1.01.8M16.62 18.42l.25.31M17.08 18.13l.26.33M15.95 20.52l.72 1.53h-1.04s-.61-.02-.61.53c0 .54.76.69 1.85.18"/><path stroke="#FF6CC7" stroke-linecap="round" stroke-linejoin="round" stroke-miterlimit="10" stroke-width=".35" d="M15.19 20.93s1.11.06 1.79-.19M15.15 21.53s1.32.01 1.9-.17M18.77 14.3h2.37M19.25 15.24s.4-.16.52-.92M20.02 15.21h.37v-.78M19.9 14.26v-.29M20.91 14.83s.2.2.36.41M18.95 14.79s-.14.23-.33.41M19.5 15.75h1.12s-.55.91-1.97.91M19.72 15.41s-.43.5-.88.68"/><path stroke="#FF6CC7" stroke-linecap="round" stroke-linejoin="round" stroke-miterlimit="10" stroke-width=".35" d="M19.43 15.86s.3.8 1.63.86"/><defs><radialGradient id="a" cx="0" cy="0" r="1" gradientTransform="matrix(-25.12498 12.24993 -7.69209 -15.7767 29.375 12.625)" gradientUnits="userSpaceOnUse"><stop stop-color="#FF91DE"/><stop offset="1" stop-color="#D756B1"/></radialGradient><radialGradient id="c" cx="0" cy="0" r="1" gradientTransform="matrix(16.875 -17.75 18.36177 17.4566 11.25 25)" gradientUnits="userSpaceOnUse"><stop stop-color="#F7EBFF"/><stop offset="1" stop-color="#E3D6ED"/></radialGradient><filter id="b" width="28.541" height="27.64" x=".96" y="2.46" color-interpolation-filters="sRGB" filterUnits="userSpaceOnUse"><feFlood flood-opacity="0" result="BackgroundImageFix"/><feBlend in="SourceGraphic" in2="BackgroundImageFix" result="shape"/><feColorMatrix in="SourceAlpha" result="hardAlpha" values="0 0 0 0 0 0 0 0 0 0 0 0 0 0 0 0 0 0 127 0"/><feOffset dx="-1.5" dy="1.5"/><feGaussianBlur stdDeviation="1.5"/><feComposite in2="hardAlpha" k2="-1" k3="1" operator="arithmetic"/><feColorMatrix values="0 0 0 0 0.819608 0 0 0 0 0.733333 0 0 0 0 0.882353 0 0 0 1 0"/><feBlend in2="shape" result="effect1_innerShadow_28327_7196"/></filter><filter id="d" width="28.363" height="27.56" x="1.8" y="1.75" color-interpolation-filters="sRGB" filterUnits="userSpaceOnUse"><feFlood flood-opacity="0" result="BackgroundImageFix"/><feBlend in="SourceGraphic" in2="BackgroundImageFix" result="shape"/><feColorMatrix in="SourceAlpha" result="hardAlpha" values="0 0 0 0 0 0 0 0 0 0 0 0 0 0 0 0 0 0 127 0"/><feOffset dx=".2" dy="-.4"/><feGaussianBlur stdDeviation=".125"/><feComposite in2="hardAlpha" k2="-1" k3="1" operator="arithmetic"/><feColorMatrix values="0 0 0 0 0.870588 0 0 0 0 0.313726 0 0 0 0 0.741176 0 0 0 0.75 0"/><feBlend in2="shape" result="effect1_innerShadow_28327_7196"/><feColorMatrix in="SourceAlpha" result="hardAlpha" values="0 0 0 0 0 0 0 0 0 0 0 0 0 0 0 0 0 0 127 0"/><feOffset dx="-.2" dy=".4"/><feGaussianBlur stdDeviation=".125"/><feComposite in2="hardAlpha" k2="-1" k3="1" operator="arithmetic"/><feColorMatrix values="0 0 0 0 0.996078 0 0 0 0 0.541176 0 0 0 0 0.831373 0 0 0 1 0"/><feBlend in2="effect1_innerShadow_28327_7196" result="effect2_innerShadow_28327_7196"/></filter></defs></svg>
